src/status/24/audacious-panel.svg

<svg xmlns="http://www.w3.org/2000/svg" xmlns:xlink="http://www.w3.org/1999/xlink" width="24px" height="24px" viewBox="0 0 24 24" version="1.1">
<g id="surface1">
<path style=" stroke:none;fill-rule:nonzero;fill:rgb(18.039216%,20.392157%,25.098041%);fill-opacity:1;" d="M 12.960938 3.277344 C 12.652344 3.265625 12.335938 3.28125 12.007812 3.292969 C 10.066406 3.375 6.628906 3.308594 5.289062 4.785156 C 4.46875 5.6875 4.851562 7.785156 6.105469 8.003906 C 7.667969 8.273438 10.3125 7.601562 12.007812 7.765625 C 13.191406 7.882812 13.535156 8.769531 12.574219 9.382812 C 11.554688 10.035156 9.242188 9.839844 8.074219 10.167969 C 4.035156 11.296875 2.582031 13.695312 3.574219 16.945312 C 4.21875 19.066406 6.5 20.636719 8.988281 20.726562 C 13.777344 20.71875 12.882812 18.464844 15.203125 19.636719 C 15.964844 20.457031 17.503906 20.722656 18.300781 20.144531 C 19.582031 19.214844 21.511719 18.71875 20.152344 16.820312 C 19.496094 15.910156 21.019531 14.730469 20.675781 10.203125 C 20.375 6.1875 17.617188 3.429688 12.960938 3.277344 Z M 12.339844 12.984375 C 13.417969 12.984375 14.269531 13.6875 14.269531 14.5625 C 14.269531 15.441406 13.417969 16.164062 12.339844 16.164062 C 11.261719 16.164062 10.371094 15.441406 10.371094 14.5625 C 10.371094 13.6875 11.261719 12.984375 12.339844 12.984375 Z M 12.339844 12.984375 "/>
</g>
</svg>

<svg width="24px" height="24px" version="1.1" viewBox="0 0 24 24" xmlns="http://www.w3.org/2000/svg">
 <path d="m12.961 3.2773c-0.30859-0.011719-0.625 0.003906-0.95313 0.015625-1.9414 0.082031-5.3789 0.015625-6.7188 1.4922-0.82031 0.90234-0.4375 3 0.81641 3.2188 1.5625 0.26953 4.207-0.40234 5.9023-0.23828 1.1836 0.11719 1.5273 1.0039 0.56641 1.6172-1.0195 0.65234-3.332 0.45703-4.5 0.78516-4.0391 1.1289-5.4922 3.5273-4.5 6.7773 0.64453 2.1211 2.9258 3.6914 5.4141 3.7812 4.7891-0.007812 3.8945-2.2617 6.2148-1.0898 0.76172 0.82031 2.3008 1.0859 3.0977 0.50781 1.2812-0.92969 3.2109-1.4258 1.8516-3.3242-0.65625-0.91016 0.86719-2.0898 0.52344-6.6172-0.30078-4.0156-3.0586-6.7734-7.7148-6.9258zm-0.62109 9.707c1.0781 0 1.9297 0.70312 1.9297 1.5781 0 0.87891-0.85156 1.6016-1.9297 1.6016s-1.9688-0.72266-1.9688-1.6016c0-0.875 0.89062-1.5781 1.9688-1.5781z" fill="#2e3440"/>
</svg>
